X:1
T:Title
%%score { 1 | 2 }
L:1/8
M:2/2
K:C
V:1 treble nm="Grand Piano"
V:2 bass 
V:1
 z4 z2[Q:1/4=116] G2 | c2 G2 E2 C2 | G4 [G,G]2 [CEG]2 | [CFA]2 [CG]2 [G,B,F]2 [G,CE]2 | %4
 [G,B,D]6 G2 | E2 C2 E2 G2 | [Ec]4 [EB]2 [EA]2 | [Dd]3 [Ec] [DB]2 [DA]2 | [B,DG]6 G2 | %9
 A2 A2 B2 B2 | [Ec]4 [EG]2 [EG]2 | [Gc]3 [Gc] d2 d2 | e6 [Ge]2 | [Fd]2 [Fc]2 [_EB]2 [EA]2 | %14
 [EG]2 [Ec]4 [Gc]2 | d3 d c2 B2 |[M:3/4] [Ec]6 |[M:1/4] [EG]2 |[M:4/4] G4 G4 | G3 A B2 c2 | d4 c4 | %21
 B6 G2 | G2 A2 B2 c2 | d2 d2 e2 e2 | f4 e4 | d6 G2 | [Ec]3 [Ec] [FB]2 [FB]2 | [Gc]4 [EG]2 [EG]2 | %28
 [Gc]3 [Gc] d2 d2 | e6 [Ge]2 | [Gf]2 [Ge]2 [Fd]2 [Ac]2 | B2 A2 G2 c2 | c4 B4 |[M:3/4] [Ec]6 |] %34
V:2
 z4 z2 G,2 | C2 G,2 E,2 C,2 | G,4 E,2 C,2 | F,2 E,2 D,2 C,2 | G,,6 G,2 | E,2 C,2 E,2 G,2 | %6
 [C,G,]4 [C,G,]2 [C,G,]2 | [B,,G,]3 [C,G,] [D,G,]2 [D,C]2 | [G,,G,]6 [E,C]2 | %9
 [F,CF]2 [F,CF]2 [G,F]2 [G,F]2 | [C,G,]4 [C,C]2 [C,C]2 | [E,C]3 [E,C][K:treble] [G,B,G]2 [G,B,G]2 | %12
 [CG]6[K:bass] [C,C]2 | [C,A,]2 [C,A,]2 [C,^F,]2 [C,F,]2 | [C,G,]2 [C,G,]4 [E,C]2 | %15
 [F,A,F]3 [F,A,F] [G,E]2 [G,D]2 |[M:3/4] [C,G,]6 |[M:1/4] [C,C]2 | %18
[M:4/4][K:treble] [G,B,D]4 [G,CE]4 | [G,DF]6 [G,CE]2 | [G,B,F]4[K:bass] [G,CE]4 | [G,D]6 G,2 | %22
 G,2 A,2 B,2[K:treble] C2 | D2 D2 [CG]2 [CG]2 | [B,DG]4 [CG]4 | [G,B,G]6 [G,B,F]2 | %26
 [C,G,]3 [C,G,] [D,G,]2 [D,G,]2 | [E,G,]4 [C,C]2 [C,C]2 | %28
 [E,C]3 [E,C][K:treble] [G,B,G]2 [G,B,G]2 | [CG]6[K:bass] [C,C]2 | %30
 [D,B,]2 [E,_B,]2 [F,A,]2 [^F,D]2 | [G,DG]2 [CD^F]2 [B,D]2 [A,_EF]2 | [G,EG]4 [G,DF]4 | %33
[M:3/4][K:bass] [C,C]6 |] %34

